X: 27625
T: Moon Over Kilcatherine
R: jig
M: 6/8
K: Edorian
B,|:EBE BEB|AFD dAF|EBE eBe|dcA Bfe|
dcd ecA|BEF DA,B,|1 DCD AFD|BAF E3:|2 DFA dcd|BAF E3||
|:EB,E eBe|fed e2d|B/c/dB cAB|^GEF =G2A|
^GEF EB,C|DB,E A,2E|DCD AFD BAF E2:|

